kora/actions/scalable/edit-bomb.svg

<svg xmlns="http://www.w3.org/2000/svg" width="16" height="16" viewBox="0 0 16 16">
 <defs>
  <style id="current-color-scheme" type="text/css">
   .ColorScheme-Text { color:#dfdfdf; } .ColorScheme-Highlight { color:#4285f4; }
  </style>
 </defs>
 <path style="fill:currentColor" class="ColorScheme-Text" d="M 15 1 C 14.011 1.2035 13.092781 1.7820875 12.550781 2.6171875 C 12.362781 2.5329875 12.22 2.5 12 2.5 C 11.844 2.5 11.695688 2.5302187 11.554688 2.5742188 C 11.275688 2.6784188 11.030828 2.79135 10.798828 2.90625 A 6.5 6.5 0 0 0 7.5 2 A 6.5 6.5 0 0 0 1 8.5 A 6.5 6.5 0 0 0 7.5 15 A 6.5 6.5 0 0 0 14 8.5 A 6.5 6.5 0 0 0 13.207031 5.4003906 C 13.295031 5.1124906 13.370781 4.8007125 13.425781 4.4453125 C 13.469781 4.3038125 13.5 4.1564 13.5 4 C 13.5 3.664 13.489688 3.5287969 13.304688 3.2792969 C 13.705687 2.6254969 14.242 2.1969 15 2 L 15 1 z"/>
</svg>

<svg xmlns="http://www.w3.org/2000/svg" style="fill-rule:evenodd;clip-rule:evenodd;stroke-linejoin:round;stroke-miterlimit:2" width="100%" height="100%" version="1.1" viewBox="0 0 16 16" xml:space="preserve">
 <defs>
  <style id="current-color-scheme" type="text/css">
   .ColorScheme-Text { color:#dfdfdf; } .ColorScheme-Highlight { color:#4285f4; } .ColorScheme-NeutralText { color:#ff9800; } .ColorScheme-PositiveText { color:#4caf50; } .ColorScheme-NegativeText { color:#f44336; }
  </style>
 </defs>
 <circle style="fill:currentColor;fill-opacity:0.3" class="ColorScheme-Text" cx="7.455" cy="8.532" r="4.718"/>
 <path style="fill:currentColor;" class="ColorScheme-Text" d="M15,1c-0.989,0.204 -1.907,0.782 -2.449,1.617c-0.188,-0.084 -0.331,-0.117 -0.551,-0.117c-0.156,0 -0.304,0.03 -0.445,0.074c-0.279,0.104 -0.524,0.217 -0.756,0.332c-0.999,-0.591 -2.138,-0.904 -3.299,-0.906c-3.566,0 -6.5,2.934 -6.5,6.5c0,3.566 2.934,6.5 6.5,6.5c3.566,0 6.5,-2.934 6.5,-6.5c-0.002,-1.083 -0.275,-2.149 -0.793,-3.1c0.088,-0.288 0.164,-0.599 0.219,-0.955c0.044,-0.141 0.074,-0.289 0.074,-0.445c0,-0.336 -0.01,-0.471 -0.195,-0.721c0.401,-0.654 0.937,-1.082 1.695,-1.279l0,-1Zm-7.545,2.814c2.604,0 4.718,2.114 4.718,4.718c-0,2.604 -2.114,4.718 -4.718,4.718c-2.604,0 -4.718,-2.114 -4.718,-4.718c-0,-2.604 2.114,-4.718 4.718,-4.718Z"/>
</svg>
